X: 2
T: The Liverpool
R: hornpipe
M: 4/4
L: 1/8
K: Dmaj
|: A>G |F>DF>A d>fa>f | g>fe>c d>cB>A | G2 B>G F>GA>F | E>^DE>F (3GBA A>G |
F>DF>A d2 (3agf | g>fe>c d2 (3cBA | d>fa>f b>g (3edc | d2 d>c d2 :|
(3ABc |d2 f>d c2 e>c | B>^AB>c d>cB>=A | G2 B>G F2 A>F | E>^DE>F G>BA>G |
F>DF>A d>fa>f | g2 (3fec d>cB>A | d>f (3agf b>ge>c | d2 A2 D2 A>c |
d>fd>f c>ec>e | B>cd>e d2 (3cBA | G>BG>B F>AF>A | E>^DE>F G>BA>G |
F>D (3FGA d>fa>f | g>e (3fec d2 (3cBA | a>f (3def b>g (3ece | d2 (3ddd d2 |]


Tune 1500	Setting 1500

